X:1
T:Partition sans titre
C:Compositeur / Arrangeur
L:1/8
M:4/4
I:linebreak $
K:D
V:1 treble nm="Violon" snm="Vln."
V:1
"D" dafd affe | dafd"A" aABc |"D" dafd a2 d2 |"A" cAce a3 A |"A" caec aged | caec A2 AA | %6
 cAce"G" gBBc |1"D" dfcf PB2 (3ABc :|2"D" dd'af d2 dB |:"D" A2 F2 A2 FA | dcde fedc | %11
"G" B2 G2 B2 GB |"Em" eBef gfed |"A" c2 a2 c2 aa |1 cage agec |"D" d3 d dcdb |"A" a2 gb egce :|2 %17
 cage a3 g | eage cABc |"D" dd'af d2 dB :|3 cage a3 g | eage cABc |"D" dd'af d2 (3ABc |] %23
